flaticon/coffee-shop/coffee-cup-7.svg

<svg xmlns="http://www.w3.org/2000/svg" width="32" height="32" viewBox="0 0 24 24">
    <path d="M10.121094 3.320312C9.519531 3.921875 9.199219 4.519531 9.199219 5.160156 9.199219 5.800781 9.519531 6.441406 10.121094 7.078125 10.199219 7.160156 10.28125 7.199219 10.398438 7.199219 10.519531 7.199219 10.601562 7.160156 10.679688 7.078125 10.839844 6.921875 10.839844 6.679688 10.679688 6.519531 10.238281 6.039062 10 5.601562 10 5.160156 10 4.71875 10.238281 4.28125 10.679688 3.878906 11.28125 3.320312 11.601562 2.679688 11.601562 2.039062 11.601562 1.359375 11.320312.71875 10.679688.121094 10.519531-.0390625 10.28125-.0390625 10.121094.121094 9.960938.28125 9.960938.519531 10.121094.679688 10.558594 1.160156 10.800781 1.601562 10.800781 2.039062 10.800781 2.480469 10.558594 2.921875 10.121094 3.320312zM14.921875 3.320312C14.320312 3.921875 14 4.519531 14 5.160156 14 5.800781 14.320312 6.441406 14.921875 7.078125 15 7.160156 15.078125 7.199219 15.199219 7.199219 15.320312 7.199219 15.398438 7.160156 15.480469 7.078125 15.640625 6.921875 15.640625 6.679688 15.480469 6.519531 15.039062 6.039062 14.800781 5.601562 14.800781 5.160156 14.800781 4.71875 15.039062 4.28125 15.480469 3.878906 16.078125 3.320312 16.398438 2.679688 16.398438 2.039062 16.398438 1.359375 16.121094.71875 15.480469.121094 15.320312-.0390625 15.078125-.0390625 14.921875.121094 14.761719.28125 14.761719.519531 14.921875.679688 15.359375 1.160156 15.601562 1.601562 15.601562 2.039062 15.601562 2.480469 15.359375 2.921875 14.921875 3.320312zM5.199219 5.160156C5.199219 5.800781 5.480469 6.441406 6.121094 7.078125 6.199219 7.160156 6.28125 7.199219 6.398438 7.199219 6.480469 7.199219 6.601562 7.160156 6.679688 7.078125 6.839844 6.921875 6.839844 6.679688 6.679688 6.519531 6.238281 6.039062 6 5.601562 6 5.160156 6 4.71875 6.238281 4.320312 6.679688 3.878906 7.28125 3.320312 7.601562 2.679688 7.601562 2.039062 7.601562 1.359375 7.28125.71875 6.679688.121094 6.519531-.0390625 6.28125-.0390625 6.121094.121094 5.960938.28125 5.960938.519531 6.121094.679688 6.558594 1.121094 6.800781 1.601562 6.800781 2.039062 6.800781 2.480469 6.558594 2.878906 6.121094 3.320312 5.519531 3.921875 5.199219 4.519531 5.199219 5.160156zM17.199219 9.621094L17.199219 8.398438C17.199219 8.160156 17.039062 8 16.800781 8L4 8C3.761719 8 3.601562 8.160156 3.601562 8.398438L3.601562 21.601562C3.601562 22.28125 4.039062 23.078125 4.71875 23.199219L6.320312 23.601562C7.558594 23.878906 8.921875 24 10.28125 24 10.300781 24 10.320312 24 10.339844 24 10.359375 24 10.378906 24 10.398438 24 11.761719 24 13.160156 23.878906 14.558594 23.601562L16.121094 23.199219C16.800781 23.078125 17.238281 22.28125 17.238281 21.601562L17.238281 20C17.238281 19.992188 17.238281 19.980469 17.238281 19.972656 19.027344 19.757812 20.398438 18.25 20.398438 16.398438L20.398438 13.199219C20.398438 11.335938 19.007812 9.820312 17.199219 9.621094zM4.398438 10.398438L16.398438 10.398438 16.398438 19.601562C16.398438 19.671875 16.414062 19.734375 16.441406 19.789062L16.441406 20C16.441406 20.320312 16.199219 20.761719 15.960938 20.800781 15.921875 20.800781 15.921875 20.800781 15.921875 20.800781L14.359375 21.199219C11.71875 21.71875 9 21.71875 6.519531 21.199219L4.878906 20.800781C4.640625 20.761719 4.398438 20.320312 4.398438 20zM4.398438 8.800781L16.398438 8.800781 16.398438 9.601562 4.398438 9.601562zM4.878906 22.398438C4.679688 22.359375 4.398438 21.921875 4.398438 21.601562L4.398438 21.480469C4.480469 21.519531 4.601562 21.558594 4.761719 21.601562L6.359375 22C8.921875 22.558594 11.761719 22.558594 14.519531 22L16.121094 21.601562C16.238281 21.558594 16.359375 21.519531 16.441406 21.480469L16.441406 21.601562C16.441406 21.921875 16.160156 22.359375 15.960938 22.398438L15.921875 22.398438 14.359375 22.800781C13.019531 23.054688 11.679688 23.1875 10.378906 23.191406 9.078125 23.1875 7.78125 23.054688 6.519531 22.800781zM19.601562 16.441406C19.601562 17.839844 18.558594 19 17.199219 19.199219L17.199219 10.441406C18.558594 10.640625 19.601562 11.800781 19.601562 13.238281zM19.601562 16.441406"/>
    <path d="M 10.398438 19.601562 C 12.398438 19.601562 14 18 14 16 C 14 14 12.398438 12.398438 10.398438 12.398438 C 8.398438 12.398438 6.800781 14 6.800781 16 C 6.800781 18 8.398438 19.601562 10.398438 19.601562 Z M 10.398438 13.199219 C 11.960938 13.199219 13.199219 14.441406 13.199219 16 C 13.199219 17.558594 11.960938 18.800781 10.398438 18.800781 C 8.839844 18.800781 7.601562 17.558594 7.601562 16 C 7.601562 14.441406 8.839844 13.199219 10.398438 13.199219 Z M 10.398438 13.199219"/>
    <path d="M 10.398438 18 C 11.519531 18 12.398438 17.121094 12.398438 16 C 12.398438 15.761719 12.238281 15.601562 12 15.601562 C 11.761719 15.601562 11.601562 15.761719 11.601562 16 C 11.601562 16.679688 11.082031 17.199219 10.398438 17.199219 C 9.71875 17.199219 9.199219 16.679688 9.199219 16 C 9.199219 15.320312 9.71875 14.800781 10.398438 14.800781 C 10.640625 14.800781 10.800781 14.640625 10.800781 14.398438 C 10.800781 14.160156 10.640625 14 10.398438 14 C 9.28125 14 8.398438 14.878906 8.398438 16 C 8.398438 17.121094 9.28125 18 10.398438 18 Z M 10.398438 18"/>
</svg>

<svg xmlns="http://www.w3.org/2000/svg" width="32" height="32" viewBox="0 0 24 24">
    <path d="M10.121 3.32c-.601.602-.922 1.2-.922 1.84 0 .64.32 1.281.922 1.918.078.082.16.121.277.121.122 0 .204-.039.282-.12a.385.385 0 0 0 0-.56c-.442-.48-.68-.917-.68-1.359 0-.441.238-.879.68-1.281.601-.559.922-1.2.922-1.84 0-.68-.282-1.32-.922-1.918a.385.385 0 0 0-.559 0 .385.385 0 0 0 0 .559c.438.48.68.922.68 1.36 0 .44-.242.882-.68 1.28zm0 0M14.922 3.32C14.32 3.922 14 4.52 14 5.16c0 .64.32 1.281.922 1.918a.348.348 0 0 0 .277.121c.121 0 .2-.039.281-.12a.385.385 0 0 0 0-.56c-.44-.48-.68-.917-.68-1.359 0-.441.24-.879.68-1.281.598-.559.918-1.2.918-1.84 0-.68-.277-1.32-.918-1.918a.385.385 0 0 0-.558 0 .385.385 0 0 0 0 .559c.437.48.68.922.68 1.36 0 .44-.243.882-.68 1.28zm0 0M5.2 5.16c0 .64.28 1.281.921 1.918.078.082.16.121.277.121.082 0 .204-.039.282-.12a.385.385 0 0 0 0-.56C6.238 6.04 6 5.603 6 5.16c0-.441.238-.84.68-1.281.601-.559.922-1.2.922-1.84 0-.68-.32-1.32-.922-1.918a.385.385 0 0 0-.559 0 .385.385 0 0 0 0 .559c.438.441.68.922.68 1.36 0 .44-.242.839-.68 1.28-.601.602-.922 1.2-.922 1.84zm0 0M17.2 9.621V8.398c0-.238-.16-.398-.4-.398H4c-.238 0-.398.16-.398.398v13.204c0 .68.437 1.476 1.117 1.597l1.601.403c1.239.277 2.602.398 3.961.398H10.398c1.364 0 2.762-.121 4.16-.398l1.563-.403c.68-.12 1.117-.918 1.117-1.597V20v-.027a3.584 3.584 0 0 0 3.16-3.575V13.2A3.586 3.586 0 0 0 17.2 9.621zm-12.802.777h12v9.204c0 .07.016.132.043.187V20c0 .32-.242.762-.48.8h-.04l-1.562.4c-2.64.519-5.359.519-7.84 0l-1.64-.4c-.238-.038-.48-.48-.48-.8zm0-1.597h12v.8h-12zm.48 13.597c-.198-.039-.48-.476-.48-.796v-.122c.082.04.204.079.364.122L6.359 22c2.563.559 5.403.559 8.16 0l1.602-.398c.117-.043.238-.082.32-.122v.122c0 .32-.28.757-.48.796h-.04l-1.562.403c-1.34.254-2.68.387-3.98.39a19.899 19.899 0 0 1-3.86-.39zm14.724-5.957c0 1.399-1.043 2.559-2.403 2.758v-8.758a2.81 2.81 0 0 1 2.403 2.797zm0 0"/>
    <path d="M10.398 19.602C12.398 19.602 14 18 14 16c0-2-1.602-3.602-3.602-3.602-2 0-3.597 1.602-3.597 3.602 0 2 1.597 3.602 3.597 3.602zm0-6.403c1.563 0 2.801 1.242 2.801 2.801 0 1.559-1.238 2.8-2.8 2.8A2.783 2.783 0 0 1 7.601 16c0-1.559 1.238-2.8 2.796-2.8zm0 0"/>
    <path d="M10.398 18c1.122 0 2-.879 2-2 0-.238-.16-.398-.398-.398-.238 0-.398.16-.398.398 0 .68-.52 1.2-1.204 1.2-.68 0-1.199-.52-1.199-1.2 0-.68.52-1.2 1.2-1.2.242 0 .402-.16.402-.402 0-.238-.16-.398-.403-.398-1.117 0-2 .879-2 2s.883 2 2 2zm0 0"/>
</svg>
